;FLAVOR:Marlin
;TIME:380
;Filament used: 0.0980955m
;Layer height: 0.15
;MINX:116.321
;MINY:96.322
;MINZ:0.2
;MAXX:133.675
;MAXY:113.676
;MAXZ:12.95
;Generated with Cura_SteamEngine 4.7.1
M82 ;absolute extrusion mode
G21 ; set units to millimeters
G90 ; use absolute positioning
M82 ; absolute extrusion mode
M104 S200 ; set extruder temp
M140 S60 ; set bed temp
M190 S60 ; wait for bed temp
M109 S200 ; wait for extruder temp
G28 W ; home all without mesh bed level
G80 ; mesh bed leveling
G92 E0.0 ; reset extruder distance position
G1 Y-3.0 F1000.0 ; go outside print area
G1 X60.0 E9.0 F1000.0 ; intro line
G1 X100.0 E21.5 F1000.0 ; intro line
G92 E0.0 ; reset extruder distance position
G92 E0
G92 E0
G1 F2100 E-0.8
;LAYER_COUNT:86
;LAYER:0
M107
G0 F3600 X118.145 Y99.677 Z0.2
;TYPE:SKIRT
G1 F2100 E0
G1 F1800 X118.663 Y99.071 E0.02652
G1 X119.054 Y98.679 E0.04493
G1 X119.658 Y98.16 E0.07142
G1 X120.072 Y97.856 E0.0885
G1 X120.753 Y97.432 E0.11518
G1 X121.242 Y97.178 E0.13351
G1 X121.971 Y96.868 E0.15986
G1 X122.473 Y96.698 E0.17749
G1 X123.238 Y96.502 E0.20375
G1 X123.754 Y96.411 E0.22118
G1 X124.551 Y96.333 E0.24781
G1 X125.091 Y96.322 E0.26578
G1 X125.891 Y96.368 E0.29243
G1 X126.418 Y96.439 E0.31012
G1 X127.194 Y96.604 E0.3365
G1 X127.713 Y96.757 E0.3545
G1 X128.457 Y97.04 E0.38097
G1 X128.931 Y97.263 E0.3984
G1 X129.626 Y97.658 E0.42499
G1 X130.072 Y97.959 E0.44288
G1 X130.681 Y98.44 E0.46869
G1 X131.063 Y98.791 E0.48595
G1 X131.615 Y99.384 E0.51289
G1 X131.968 Y99.828 E0.53176
G1 X132.419 Y100.494 E0.55851
G1 X132.664 Y100.925 E0.575
G1 X133.003 Y101.645 E0.60147
G1 X133.201 Y102.165 E0.61998
G1 X133.423 Y102.913 E0.64593
G1 X133.534 Y103.425 E0.66335
G1 X133.643 Y104.223 E0.69014
G1 X133.675 Y104.77 E0.70837
G1 X133.661 Y105.566 E0.73484
G1 X133.612 Y106.082 E0.75208
G1 X133.477 Y106.863 E0.77845
G1 X133.347 Y107.378 E0.79611
G1 X133.091 Y108.138 E0.82278
G1 X132.879 Y108.637 E0.84082
G1 X132.515 Y109.34 E0.86715
G1 X132.239 Y109.786 E0.88459
G1 X131.766 Y110.433 E0.91125
G1 X131.402 Y110.858 E0.92986
G1 X130.842 Y111.419 E0.95622
G1 X130.465 Y111.743 E0.97276
G1 X129.821 Y112.215 E0.99931
G1 X129.348 Y112.509 E1.01784
G1 X128.636 Y112.879 E1.04453
G1 X128.144 Y113.088 E1.06231
G1 X127.402 Y113.339 E1.08836
G1 X126.891 Y113.47 E1.1059
G1 X126.1 Y113.609 E1.13262
G1 X125.572 Y113.66 E1.15026
G1 X124.781 Y113.676 E1.17657
G1 X124.245 Y113.646 E1.19443
G1 X123.448 Y113.539 E1.22117
G1 X122.929 Y113.428 E1.23883
G1 X122.172 Y113.205 E1.26507
G1 X121.674 Y113.016 E1.28279
G1 X120.955 Y112.678 E1.30922
G1 X120.491 Y112.415 E1.32695
G1 X119.827 Y111.968 E1.35358
G1 X119.395 Y111.626 E1.3719
G1 X118.808 Y111.083 E1.3985
G1 X118.469 Y110.717 E1.41509
G1 X117.976 Y110.095 E1.44149
G1 X117.661 Y109.629 E1.4602
G1 X117.268 Y108.94 E1.48658
G1 X117.041 Y108.46 E1.50424
G1 X116.755 Y107.71 E1.53094
G1 X116.607 Y107.209 E1.54831
G1 X116.441 Y106.434 E1.57467
G1 X116.367 Y105.888 E1.593
G1 X116.321 Y105.097 E1.61935
G1 X116.33 Y104.592 E1.63615
G1 X116.405 Y103.798 E1.66268
G1 X116.5 Y103.249 E1.68121
G1 X116.698 Y102.47 E1.70794
G1 X116.861 Y101.988 E1.72487
G1 X117.166 Y101.27 E1.75081
G1 X117.424 Y100.77 E1.76953
G1 X117.845 Y100.088 E1.79618
G1 X118.145 Y99.677 E1.81311
G0 F3600 X118.468 Y99.913
G1 F1800 X118.947 Y99.353 E1.83762
G1 X119.338 Y98.961 E1.85603
G1 X119.895 Y98.482 E1.88047
G1 X120.309 Y98.178 E1.89755
G1 X120.937 Y97.787 E1.92215
G1 X121.426 Y97.533 E1.94048
G1 X122.099 Y97.247 E1.9648
G1 X122.601 Y97.077 E1.98243
G1 X123.307 Y96.896 E2.00667
G1 X123.823 Y96.805 E2.0241
G1 X124.559 Y96.733 E2.0487
G1 X125.099 Y96.722 E2.06666
G1 X125.838 Y96.764 E2.09128
G1 X126.365 Y96.835 E2.10897
G1 X127.081 Y96.988 E2.13332
G1 X127.6 Y97.141 E2.15131
G1 X128.286 Y97.402 E2.17573
G1 X128.76 Y97.625 E2.19315
G1 X129.402 Y97.989 E2.21769
G1 X129.848 Y98.29 E2.23559
G1 X130.411 Y98.735 E2.25946
G1 X130.793 Y99.086 E2.27671
G1 X131.302 Y99.633 E2.30157
G1 X131.655 Y100.077 E2.32043
G1 X132.071 Y100.692 E2.34513
G1 X132.316 Y101.123 E2.36162
G1 X132.629 Y101.787 E2.38603
G1 X132.827 Y102.307 E2.40454
G1 X133.032 Y102.998 E2.42851
G1 X133.143 Y103.51 E2.44594
G1 X133.244 Y104.247 E2.47068
G1 X133.276 Y104.794 E2.4889
G1 X133.263 Y105.528 E2.51332
G1 X133.214 Y106.044 E2.53056
G1 X133.089 Y106.765 E2.5549
G1 X132.959 Y107.28 E2.57256
G1 X132.723 Y107.982 E2.5972
G1 X132.511 Y108.481 E2.61523
G1 X132.175 Y109.13 E2.63953
G1 X131.899 Y109.576 E2.65698
G1 X131.463 Y110.172 E2.68154
G1 X131.099 Y110.597 E2.70015
G1 X130.582 Y111.115 E2.72449
G1 X130.205 Y111.439 E2.74103
G1 X129.61 Y111.876 E2.76558
G1 X129.137 Y112.17 E2.7841
G1 X128.48 Y112.511 E2.80872
G1 X127.988 Y112.72 E2.8265
G1 X127.303 Y112.952 E2.85056
G1 X126.792 Y113.083 E2.8681
G1 X126.061 Y113.211 E2.89279
G1 X125.533 Y113.262 E2.91043
G1 X124.804 Y113.276 E2.93468
G1 X124.268 Y113.246 E2.95254
G1 X123.532 Y113.148 E2.97723
G1 X123.013 Y113.037 E2.99488
G1 X122.314 Y112.831 E3.01912
G1 X121.816 Y112.642 E3.03684
G1 X121.152 Y112.33 E3.06124
G1 X120.688 Y112.067 E3.07898
G1 X120.076 Y111.654 E3.10354
G1 X119.644 Y111.312 E3.12186
G1 X119.101 Y110.811 E3.14643
G1 X118.762 Y110.445 E3.16303
G1 X118.307 Y109.871 E3.18739
G1 X117.992 Y109.405 E3.2061
G1 X117.63 Y108.769 E3.23044
G1 X117.403 Y108.289 E3.2481
G1 X117.139 Y107.597 E3.27273
G1 X116.991 Y107.096 E3.29011
G1 X116.837 Y106.381 E3.31443
G1 X116.763 Y105.835 E3.33276
G1 X116.721 Y105.104 E3.35711
G1 X116.73 Y104.599 E3.37391
G1 X116.799 Y103.867 E3.39837
G1 X116.894 Y103.318 E3.4169
G1 X117.077 Y102.598 E3.4416
G1 X117.24 Y102.116 E3.45853
G1 X117.521 Y101.453 E3.48248
G1 X117.779 Y100.953 E3.50119
G1 X118.168 Y100.324 E3.52579
G1 X118.468 Y99.913 E3.54271
G0 F3600 X118.791 Y100.149
G1 F1800 X119.23 Y99.636 E3.56517
G1 X119.621 Y99.244 E3.58359
G1 X120.132 Y98.804 E3.60601
G1 X120.546 Y98.5 E3.6231
G1 X121.122 Y98.142 E3.64565
G1 X121.611 Y97.888 E3.66398
G1 X122.228 Y97.625 E3.68629
G1 X122.73 Y97.455 E3.70392
G1 X123.377 Y97.29 E3.72613
G1 X123.893 Y97.199 E3.74355
G1 X124.567 Y97.133 E3.76608
G1 X125.107 Y97.122 E3.78404
G1 X125.784 Y97.16 E3.80659
G1 X126.311 Y97.231 E3.82428
G1 X126.968 Y97.372 E3.84663
G1 X127.487 Y97.525 E3.86463
G1 X128.116 Y97.764 E3.88701
G1 X128.59 Y97.987 E3.90443
G1 X129.178 Y98.321 E3.92692
G1 X129.624 Y98.622 E3.94482
G1 X130.14 Y99.029 E3.96668
G1 X130.522 Y99.38 E3.98393
G1 X130.989 Y99.882 E4.00673
G1 X131.342 Y100.326 E4.0256
G1 X131.723 Y100.89 E4.04824
G1 X131.968 Y101.321 E4.06473
G1 X132.255 Y101.929 E4.08709
G1 X132.453 Y102.449 E4.1056
G1 X132.641 Y103.083 E4.12759
G1 X132.752 Y103.595 E4.14502
G1 X132.844 Y104.27 E4.16767
G1 X132.876 Y104.817 E4.1859
G1 X132.864 Y105.49 E4.20829
G1 X132.815 Y106.006 E4.22553
G1 X132.701 Y106.667 E4.24784
G1 X132.571 Y107.182 E4.2655
G1 X132.355 Y107.826 E4.28809
G1 X132.143 Y108.325 E4.30613
G1 X131.835 Y108.919 E4.32838
G1 X131.559 Y109.365 E4.34583
G1 X131.159 Y109.912 E4.36836
G1 X130.795 Y110.337 E4.38698
G1 X130.321 Y110.812 E4.40929
G1 X129.944 Y111.136 E4.42583
G1 X129.399 Y111.536 E4.44831
G1 X128.926 Y111.83 E4.46684
G1 X128.323 Y112.143 E4.48943
G1 X127.831 Y112.352 E4.50721
G1 X127.204 Y112.564 E4.52923
G1 X126.693 Y112.695 E4.54677
G1 X126.023 Y112.813 E4.5694
G1 X125.495 Y112.864 E4.58704
G1 X124.826 Y112.877 E4.6093
G1 X124.29 Y112.847 E4.62715
G1 X123.616 Y112.757 E4.64977
G1 X123.097 Y112.646 E4.66742
G1 X122.456 Y112.457 E4.68965
G1 X121.958 Y112.268 E4.70736
G1 X121.349 Y111.982 E4.72974
G1 X120.885 Y111.719 E4.74748
G1 X120.324 Y111.341 E4.76998
G1 X119.892 Y110.999 E4.78831
G1 X119.395 Y110.539 E4.81083
G1 X119.056 Y110.173 E4.82742
G1 X118.639 Y109.647 E4.84975
G1 X118.324 Y109.181 E4.86846
G1 X117.991 Y108.598 E4.89079
G1 X117.764 Y108.118 E4.90845
G1 X117.522 Y107.484 E4.93102
G1 X117.374 Y106.983 E4.94839
G1 X117.234 Y106.327 E4.9707
G1 X117.16 Y105.781 E4.98903
G1 X117.121 Y105.112 E5.01132
G1 X117.13 Y104.607 E5.02812
G1 X117.193 Y103.935 E5.05057
G1 X117.288 Y103.386 E5.0691
G1 X117.456 Y102.726 E5.09175
G1 X117.619 Y102.244 E5.10867
G1 X117.877 Y101.636 E5.13064
G1 X118.135 Y101.136 E5.14935
G1 X118.491 Y100.56 E5.17188
G1 X118.791 Y100.149 E5.1888
G0 F3600 X119.114 Y100.385
G1 F1800 X119.513 Y99.918 E5.20923
G1 X119.904 Y99.526 E5.22765
G1 X120.369 Y99.127 E5.24802
G1 X120.783 Y98.823 E5.26511
G1 X121.306 Y98.497 E5.28561
G1 X121.795 Y98.243 E5.30393
G1 X122.356 Y98.004 E5.32421
G1 X122.858 Y97.834 E5.34184
G1 X123.446 Y97.684 E5.36203
G1 X123.962 Y97.593 E5.37945
G1 X124.576 Y97.533 E5.39997
G1 X125.116 Y97.522 E5.41794
G1 X125.731 Y97.557 E5.43842
G1 X126.258 Y97.628 E5.45611
G1 X126.855 Y97.755 E5.47641
G1 X127.374 Y97.908 E5.49441
G1 X127.946 Y98.126 E5.51477
G1 X128.42 Y98.349 E5.53219
G1 X128.955 Y98.652 E5.55264
G1 X129.401 Y98.953 E5.57054
G1 X129.869 Y99.324 E5.5904
G1 X130.251 Y99.675 E5.60765
G1 X130.676 Y100.131 E5.62839
G1 X131.029 Y100.575 E5.64725
G1 X131.375 Y101.087 E5.66781
G1 X131.62 Y101.518 E5.68429
G1 X131.881 Y102.072 E5.70466
G1 X132.079 Y102.592 E5.72317
G1 X132.25 Y103.168 E5.74315
G1 X132.361 Y103.68 E5.76058
G1 X132.445 Y104.293 E5.78116
G1 X132.477 Y104.84 E5.79938
G1 X132.466 Y105.452 E5.81974
G1 X132.417 Y105.968 E5.83698
G1 X132.313 Y106.569 E5.85727
G1 X132.183 Y107.084 E5.87493
G1 X131.987 Y107.669 E5.89545
G1 X131.775 Y108.168 E5.91349
G1 X131.494 Y108.709 E5.93376
G1 X131.218 Y109.155 E5.95121
G1 X130.855 Y109.652 E5.97168
G1 X130.491 Y110.077 E5.99029
G1 X130.06 Y110.509 E6.01058
G1 X129.683 Y110.833 E6.02712
G1 X129.188 Y111.196 E6.04753
G1 X128.715 Y111.49 E6.06606
G1 X128.167 Y111.775 E6.0866
G1 X127.675 Y111.984 E6.10438
G1 X127.104 Y112.177 E6.12443
G1 X126.593 Y112.308 E6.14197
G1 X125.985 Y112.414 E6.1625
G1 X125.457 Y112.465 E6.18014
G1 X124.848 Y112.478 E6.2004
G1 X124.312 Y112.448 E6.21826
G1 X123.699 Y112.366 E6.23883
G1 X123.18 Y112.255 E6.25648
G1 X122.598 Y112.083 E6.27667
G1 X122.1 Y111.894 E6.29438
G1 X121.547 Y111.634 E6.31471
G1 X121.083 Y111.371 E6.33245
G1 X120.572 Y111.027 E6.35294
G1 X120.14 Y110.685 E6.37126
G1 X119.688 Y110.267 E6.39174
G1 X119.349 Y109.901 E6.40833
G1 X118.97 Y109.423 E6.42862
G1 X118.655 Y108.957 E6.44733
G1 X118.353 Y108.427 E6.46762
G1 X118.126 Y107.947 E6.48528
G1 X117.906 Y107.37 E6.50582
G1 X117.758 Y106.869 E6.52319
G1 X117.63 Y106.273 E6.54347
G1 X117.556 Y105.727 E6.56179
G1 X117.521 Y105.119 E6.58205
G1 X117.53 Y104.614 E6.59885
G1 X117.588 Y104.003 E6.61926
G1 X117.683 Y103.454 E6.63779
G1 X117.835 Y102.855 E6.65835
G1 X117.998 Y102.373 E6.67527
G1 X118.232 Y101.82 E6.69524
G1 X118.49 Y101.32 E6.71395
G1 X118.814 Y100.796 E6.73444
G1 X119.114 Y100.385 E6.75137
G0 F3600 X119.437 Y100.621
G1 F1800 X119.796 Y100.201 E6.76975
G1 X120.187 Y99.809 E6.78816
G1 X120.605 Y99.449 E6.80651
G1 X121.019 Y99.145 E6.82359
G1 X121.491 Y98.852 E6.84207
G1 X121.98 Y98.598 E6.8604
G1 X122.484 Y98.383 E6.87862
G1 X122.986 Y98.213 E6.89625
G1 X123.516 Y98.078 E6.91444
G1 X124.032 Y97.987 E6.93187
G1 X124.584 Y97.933 E6.95031
G1 X125.124 Y97.922 E6.96828
G1 X125.678 Y97.953 E6.98673
G1 X126.205 Y98.024 E7.00442
G1 X126.742 Y98.139 E7.02269
G1 X127.261 Y98.292 E7.04068
G1 X127.776 Y98.487 E7.059
G1 X128.25 Y98.71 E7.07642
G1 X128.731 Y98.984 E7.09483
G1 X129.177 Y99.285 E7.11273
G1 X129.599 Y99.618 E7.13061
G1 X129.981 Y99.969 E7.14786
G1 X130.363 Y100.38 E7.16653
G1 X130.716 Y100.824 E7.18539
G1 X131.028 Y101.285 E7.20391
G1 X131.273 Y101.716 E7.2204
G1 X131.507 Y102.214 E7.2387
G1 X131.705 Y102.734 E7.2572
G1 X131.859 Y103.252 E7.27518
G1 X131.97 Y103.764 E7.2926
G1 X132.046 Y104.317 E7.31117
G1 X132.078 Y104.864 E7.32939
G1 X132.068 Y105.414 E7.34769
G1 X132.019 Y105.93 E7.36493
G1 X131.926 Y106.471 E7.38318
G1 X131.796 Y106.986 E7.40085
G1 X131.618 Y107.513 E7.41935
G1 X131.406 Y108.012 E7.43738
G1 X131.154 Y108.498 E7.45559
G1 X130.878 Y108.944 E7.47304
G1 X130.551 Y109.392 E7.49149
G1 X130.187 Y109.817 E7.5101
G1 X129.799 Y110.205 E7.52835
G1 X129.422 Y110.529 E7.54488
G1 X128.976 Y110.857 E7.56329
G1 X128.503 Y111.151 E7.58182
G1 X128.011 Y111.406 E7.60025
G1 X127.519 Y111.615 E7.61803
G1 X127.005 Y111.789 E7.63608
G1 X126.494 Y111.92 E7.65362
G1 X125.946 Y112.016 E7.67213
G1 X125.418 Y112.067 E7.68977
G1 X124.871 Y112.078 E7.70797
G1 X124.335 Y112.048 E7.72582
G1 X123.783 Y111.974 E7.74435
G1 X123.264 Y111.863 E7.762
G1 X122.74 Y111.709 E7.78016
G1 X122.242 Y111.52 E7.79788
G1 X121.744 Y111.286 E7.81618
G1 X121.28 Y111.023 E7.83392
G1 X120.82 Y110.714 E7.85235
G1 X120.388 Y110.372 E7.87068
G1 X119.982 Y109.995 E7.8891
G1 X119.643 Y109.629 E7.9057
G1 X119.301 Y109.199 E7.92397
G1 X118.986 Y108.733 E7.94268
G1 X118.715 Y108.256 E7.96093
G1 X118.488 Y107.776 E7.97859
G1 X118.289 Y107.257 E7.99707
G1 X118.141 Y106.756 E8.01445
G1 X118.027 Y106.219 E8.03271
G1 X117.953 Y105.673 E8.05103
G1 X117.921 Y105.126 E8.06926
G1 X117.93 Y104.621 E8.08606
G1 X117.982 Y104.071 E8.10443
G1 X118.077 Y103.522 E8.12296
G1 X118.214 Y102.983 E8.14146
G1 X118.377 Y102.501 E8.15838
G1 X118.588 Y102.003 E8.17637
G1 X118.846 Y101.503 E8.19509
G1 X119.137 Y101.032 E8.2135
G1 X119.437 Y100.621 E8.23042
G0 F3600 X119.76 Y100.856
G1 F1800 X120.079 Y100.483 E8.24675
G1 X120.47 Y100.091 E8.26516
G1 X120.842 Y99.772 E8.28146
G1 X121.256 Y99.468 E8.29855
G1 X121.675 Y99.207 E8.31496
G1 X122.164 Y98.953 E8.33329
G1 X122.613 Y98.762 E8.34952
G1 X123.115 Y98.592 E8.36715
G1 X123.585 Y98.472 E8.38328
G1 X124.101 Y98.381 E8.40071
G1 X124.592 Y98.333 E8.41712
G1 X125.132 Y98.322 E8.43508
G1 X125.624 Y98.35 E8.45147
G1 X126.151 Y98.421 E8.46916
G1 X126.629 Y98.523 E8.48542
G1 X127.148 Y98.676 E8.50341
G1 X127.605 Y98.849 E8.51966
G1 X128.079 Y99.072 E8.53709
G1 X128.507 Y99.316 E8.55347
G1 X128.953 Y99.617 E8.57137
G1 X129.328 Y99.913 E8.58726
G1 X129.71 Y100.264 E8.60451
G1 X130.05 Y100.629 E8.6211
G1 X130.403 Y101.073 E8.63997
G1 X130.925 Y101.914 E8.67289
G1 X131.134 Y102.356 E8.68915
G1 X131.332 Y102.876 E8.70766
G1 X131.468 Y103.337 E8.72365
G1 X131.579 Y103.849 E8.74107
G1 X131.647 Y104.34 E8.75756
G1 X131.679 Y104.887 E8.77578
G1 X131.67 Y105.377 E8.79208
G1 X131.621 Y105.893 E8.80932
G1 X131.538 Y106.373 E8.82552
G1 X131.408 Y106.888 E8.84319
G1 X131.25 Y107.356 E8.85962
G1 X131.038 Y107.855 E8.87765
G1 X130.814 Y108.288 E8.89387
G1 X130.538 Y108.734 E8.91131
G1 X130.247 Y109.132 E8.92771
G1 X129.883 Y109.557 E8.94632
G1 X129.162 Y110.226 E8.97903
G1 X128.765 Y110.517 E8.99541
G1 X128.292 Y110.811 E9.01393
G1 X127.854 Y111.038 E9.03034
G1 X127.362 Y111.247 E9.04812
G1 X126.906 Y111.402 E9.06414
G1 X126.395 Y111.533 E9.08168
G1 X125.908 Y111.618 E9.09812
G1 X125.38 Y111.669 E9.11577
G1 X124.893 Y111.679 E9.13197
G1 X124.357 Y111.649 E9.14982
G1 X123.867 Y111.583 E9.16627
G1 X123.348 Y111.472 E9.18392
G1 X122.882 Y111.335 E9.20008
G1 X122.384 Y111.146 E9.21779
G1 X121.941 Y110.938 E9.23407
G1 X121.477 Y110.675 E9.25181
G1 X121.069 Y110.4 E9.26817
G1 X120.637 Y110.058 E9.2865
G1 X119.936 Y109.357 E9.31947
G1 X119.633 Y108.975 E9.33569
G1 X119.318 Y108.509 E9.3544
G1 X119.076 Y108.085 E9.37064
G1 X118.849 Y107.605 E9.3883
G1 X118.673 Y107.144 E9.40471
G1 X118.525 Y106.643 E9.42208
G1 X118.423 Y106.166 E9.43831
G1 X118.349 Y105.62 E9.45663
G1 X118.321 Y105.133 E9.47286
G1 X118.33 Y104.628 E9.48966
G1 X118.376 Y104.139 E9.50599
G1 X118.471 Y103.59 E9.52452
G1 X118.593 Y103.111 E9.54096
G1 X118.756 Y102.629 E9.55789
G1 X118.943 Y102.187 E9.57385
G1 X119.201 Y101.687 E9.59256
G1 X119.46 Y101.267 E9.60897
G1 X119.76 Y100.856 E9.6259
G1 F2100 E8.8259
;MESH:Question 12 v1.stl
G0 F3600 X121.241 Y103.215
G0 X122.37 Y103.828
G0 X122.262 Y105.565
G0 X122.166 Y105.59
;TYPE:WALL-INNER
G1 F2100 E9.6259
G1 F1800 X122.154 Y105.548 E9.62735
G1 X122.105 Y105.115 E9.64185
G1 X122.109 Y105.003 E9.64557
G1 X122.122 Y104.665 E9.65682
G1 X122.163 Y104.447 E9.6642
G1 X122.206 Y104.227 E9.67166
G1 X122.319 Y103.912 E9.68279
G1 X122.352 Y103.82 E9.68604
G1 X122.569 Y103.421 E9.70114
G1 X122.592 Y103.39 E9.70243
G1 X122.831 Y103.076 E9.71555
G1 X122.95 Y102.962 E9.72103
G1 X123.158 Y102.763 E9.73061
G1 X123.382 Y102.605 E9.73973
G1 X123.518 Y102.509 E9.74526
